X:1
T:Amsbury
M:6/8
L:1/8
S:Walsh - 3rd Book of the Compleat Dancing Master (1735)
K:D
F2A A2d|dcd B2A|G2F E2e|edc B2e|edc B2e|edc dcB|cdB A3:|
|:ABc d2=c|=cBc B2B|Bcd e2d|dcd A3|ABc d2G|1 FGE D2A:|2 FGE D3||
</abc>

